X: 2
T:Pig Town Fling
M:4/4
L:1/8
R:REEL
B:Ryan's Mammoth Collection of Fiddle Tunes
Z:Mod: Ed Wosika (fm: Ivan Bradley
K:G
DEF |:G2ge d2ed | B2ge dBAB | G2ge d2ed |1 BGAG EFGA :|2 B2 A2 G2 z2|
|: B2e2 efge |  fedf edBA | B2e2 efg2    | fga2 g2 z2 :|
